X: 1305
T: the Pure Drop   #2
R: reel
%S: s:2 b:12(6+6)
B: O'Neill's 1850 #1305
O: Cronin
Z: Trish O'Neil
N: Compacted via repeats and multiple endings [JC]
M: C|
L: 1/8
K: D
"^A"|:: d>D (3.D.D.D (FD)FA |1 d2(ef) gfge :|2 BEEF GABc :|3 d2ef g2fg | afge fdec | BEEF GABc ||
"^B"|:: d2(fd) adfd |1 d2ef g2fe :|2 BEEF GABc :|3 d2ef g2fg | afge fdec | BEEF GABc |]
